X:1
T: Whistle o'er the Lave o't
P:arr. J. Bruce
R:Strathspey
Q: 128
K:G
M:4/4
L:1/16
|:G3D EG3 B3A B4|d3e Bg3 A2G2 E4|G3D EG3 B3A Bg3|GG3 B3G A4 G4|
G3D EG3 B3A B4|d2ef g3B A2G2 E4|G3D EG3 B3A Bg3|GG3 B3G A4 G4|
d2ef g3f e2d2 B4|d3e Bg3 A2G2 E4|d2ef g3f e2d2 Bg3|GG3 B3G A4 G4|
d2ef g3f e2d2 B4|d2ef g3b a2g2 e3f|g3b e3g d3e Bg3|GG3 B3G A4 G4:|
